images/indikatorenset/4230.svg

<?xml version="1.0" standalone="no"?><!DOCTYPE svg PUBLIC "-//W3C//DTD SVG 1.1//EN" "http://www.w3.org/Graphics/SVG/1.1/DTD/svg11.dtd"><svg xmlns:xlink="http://www.w3.org/1999/xlink" version="1.1" class="highcharts-root" style="font-family:arial;font-size:9pt;" xmlns="http://www.w3.org/2000/svg" width="485" height="415"><desc>Created with Highstock 5.0.14</desc><defs><clipPath id="highcharts-ms8xo58-7"><rect x="0" y="0" width="429" height="216" fill="none"></rect></clipPath><clipPath id="highcharts-ms8xo58-8"><rect x="0" y="0" width="429" height="216" fill="none"></rect></clipPath></defs><rect fill="#fbfbfb" class="highcharts-background" x="0" y="0" width="485" height="415" rx="0" ry="0"></rect><rect fill="none" class="highcharts-plot-background" x="46" y="128" width="429" height="216"></rect><g class="highcharts-label" style="cursor:pointer;" transform="translate(10,451)"><text x="0" y="0"><tspan>&gt; Indikator-Details</tspan></text></g><g class="highcharts-pane-group"></g><g class="highcharts-grid highcharts-xaxis-grid "><path fill="none" class="highcharts-grid-line" d="M 77.5 128 L 77.5 344" opacity="1"></path><path fill="none" class="highcharts-grid-line" d="M 120.5 128 L 120.5 344" opacity="1"></path><path fill="none" class="highcharts-grid-line" d="M 163.5 128 L 163.5 344" opacity="1"></path><path fill="none" class="highcharts-grid-line" d="M 206.5 128 L 206.5 344" opacity="1"></path><path fill="none" class="highcharts-grid-line" d="M 249.5 128 L 249.5 344" opacity="1"></path><path fill="none" class="highcharts-grid-line" d="M 292.5 128 L 292.5 344" opacity="1"></path><path fill="none" class="highcharts-grid-line" d="M 335.5 128 L 335.5 344" opacity="1"></path><path fill="none" class="highcharts-grid-line" d="M 377.5 128 L 377.5 344" opacity="1"></path><path fill="none" class="highcharts-grid-line" d="M 420.5 128 L 420.5 344" opacity="1"></path><path fill="none" class="highcharts-grid-line" d="M 463.5 128 L 463.5 344" opacity="1"></path></g><g class="highcharts-grid highcharts-yaxis-grid "><path fill="none" stroke="#e6e6e6" stroke-width="1" class="highcharts-grid-line" d="M 46 344.5 L 475 344.5" opacity="1"></path><path fill="none" stroke="#e6e6e6" stroke-width="1" class="highcharts-grid-line" d="M 46 272.5 L 475 272.5" opacity="1"></path><path fill="none" stroke="#e6e6e6" stroke-width="1" class="highcharts-grid-line" d="M 46 200.5 L 475 200.5" opacity="1"></path><path fill="none" stroke="#e6e6e6" stroke-width="1" class="highcharts-grid-line" d="M 46 127.5 L 475 127.5" opacity="1"></path></g><g class="highcharts-grid highcharts-yaxis-grid "></g><rect fill="none" class="highcharts-plot-border" x="46" y="128" width="429" height="216"></rect><g class="highcharts-axis highcharts-xaxis "><path fill="none" class="highcharts-axis-line" stroke="#ccd6eb" stroke-width="1" d="M 46 344.5 L 475 344.5"></path></g><g class="highcharts-axis highcharts-yaxis "><path fill="none" class="highcharts-axis-line" d="M 46 128 L 46 344"></path></g><g class="highcharts-axis highcharts-yaxis "><path fill="none" class="highcharts-axis-line" d="M 475 128 L 475 344"></path></g><g class="highcharts-series-group"><g class="highcharts-series highcharts-series-0 highcharts-column-series highcharts-color-undefined " transform="translate(46,128) scale(1 1)" clip-path="url(#highcharts-ms8xo58-8)"><rect x="6" y="30" width="11" height="48" fill="#FF8028" class="highcharts-point"></rect><rect x="113" y="33" width="11" height="42" fill="#FF8028" class="highcharts-point"></rect><rect x="199" y="33" width="11" height="35" fill="#FF8028" class="highcharts-point"></rect><rect x="327" y="52" width="11" height="16" fill="#FF8028" class="highcharts-point"></rect><rect x="370" y="63" width="11" height="14" fill="#FF8028" class="highcharts-point"></rect><rect x="413" y="77" width="11" height="11" fill="#FF8028" class="highcharts-point"></rect></g><g class="highcharts-markers highcharts-series-0 highcharts-column-series highcharts-color-undefined " transform="translate(46,128) scale(1 1)" clip-path="none"></g><g class="highcharts-series highcharts-series-1 highcharts-column-series highcharts-color-undefined " transform="translate(46,128) scale(1 1)" clip-path="url(#highcharts-ms8xo58-8)"><rect x="6" y="78" width="11" height="18" fill="#DC440E" class="highcharts-point"></rect><rect x="113" y="75" width="11" height="21" fill="#DC440E" class="highcharts-point"></rect><rect x="199" y="68" width="11" height="21" fill="#DC440E" class="highcharts-point"></rect><rect x="327" y="68" width="11" height="22" fill="#DC440E" class="highcharts-point"></rect><rect x="370" y="77" width="11" height="21" fill="#DC440E" class="highcharts-point"></rect><rect x="413" y="88" width="11" height="21" fill="#DC440E" class="highcharts-point"></rect></g><g class="highcharts-markers highcharts-series-1 highcharts-column-series highcharts-color-undefined " transform="translate(46,128) scale(1 1)" clip-path="none"></g><g class="highcharts-series highcharts-series-2 highcharts-column-series highcharts-color-undefined " transform="translate(46,128) scale(1 1)" clip-path="url(#highcharts-ms8xo58-8)"><rect x="6" y="96" width="11" height="55" fill="#B00000" class="highcharts-point"></rect><rect x="113" y="96" width="11" height="53" fill="#B00000" class="highcharts-point"></rect><rect x="199" y="89" width="11" height="59" fill="#B00000" class="highcharts-point"></rect><rect x="327" y="90" width="11" height="56" fill="#B00000" class="highcharts-point"></rect><rect x="370" y="98" width="11" height="50" fill="#B00000" class="highcharts-point"></rect><rect x="413" y="109" width="11" height="41" fill="#B00000" class="highcharts-point"></rect></g><g class="highcharts-markers highcharts-series-2 highcharts-column-series highcharts-color-undefined " transform="translate(46,128) scale(1 1)" clip-path="none"></g><g class="highcharts-series highcharts-series-3 highcharts-column-series highcharts-color-undefined " transform="translate(46,128) scale(1 1)" clip-path="url(#highcharts-ms8xo58-8)"><rect x="6" y="151" width="11" height="41" fill="#661200" class="highcharts-point"></rect><rect x="113" y="149" width="11" height="42" fill="#661200" class="highcharts-point"></rect><rect x="199" y="148" width="11" height="45" fill="#661200" class="highcharts-point"></rect><rect x="327" y="146" width="11" height="37" fill="#661200" class="highcharts-point"></rect><rect x="370" y="148" width="11" height="32" fill="#661200" class="highcharts-point"></rect><rect x="413" y="150" width="11" height="28" fill="#661200" class="highcharts-point"></rect></g><g class="highcharts-markers highcharts-series-3 highcharts-column-series highcharts-color-undefined " transform="translate(46,128) scale(1 1)" clip-path="none"></g><g class="highcharts-series highcharts-series-4 highcharts-column-series highcharts-color-undefined " transform="translate(46,128) scale(1 1)" clip-path="url(#highcharts-ms8xo58-8)"><rect x="6" y="192" width="11" height="18" fill="#D3E2E4" class="highcharts-point"></rect><rect x="113" y="191" width="11" height="19" fill="#D3E2E4" class="highcharts-point"></rect><rect x="199" y="193" width="11" height="16" fill="#D3E2E4" class="highcharts-point"></rect><rect x="327" y="183" width="11" height="23" fill="#D3E2E4" class="highcharts-point"></rect><rect x="370" y="180" width="11" height="24" fill="#D3E2E4" class="highcharts-point"></rect><rect x="413" y="178" width="11" height="24" fill="#D3E2E4" class="highcharts-point"></rect></g><g class="highcharts-markers highcharts-series-4 highcharts-column-series highcharts-color-undefined " transform="translate(46,128) scale(1 1)" clip-path="none"></g><g class="highcharts-series highcharts-series-5 highcharts-column-series highcharts-color-undefined " transform="translate(46,128) scale(1 1)" clip-path="url(#highcharts-ms8xo58-8)"><rect x="6" y="210" width="11" height="7" fill="#A8C3CA" class="highcharts-point"></rect><rect x="113" y="210" width="11" height="7" fill="#A8C3CA" class="highcharts-point"></rect><rect x="199" y="209" width="11" height="8" fill="#A8C3CA" class="highcharts-point"></rect><rect x="327" y="206" width="11" height="11" fill="#A8C3CA" class="highcharts-point"></rect><rect x="370" y="204" width="11" height="13" fill="#A8C3CA" class="highcharts-point"></rect><rect x="413" y="202" width="11" height="15" fill="#A8C3CA" class="highcharts-point"></rect></g><g class="highcharts-markers highcharts-series-5 highcharts-column-series highcharts-color-undefined " transform="translate(46,128) scale(1 1)" clip-path="none"></g></g><text x="10" text-anchor="start" class="highcharts-title" style="color:#000000;font-size:1.1em;font-weight:bold;fill:#000000;" y="20"><tspan>Bruttoenergieverbrauch nach Energieträger</tspan></text><text x="10" text-anchor="start" class="highcharts-subtitle" style="color:#000000;font-size:0.9em;fill:#000000;" y="38"><tspan>Gigawattstunden</tspan></text><g class="highcharts-legend" transform="translate(10,40)"><rect fill="none" class="highcharts-legend-box" rx="0" ry="0" x="0" y="0" width="416" height="76" visibility="visible"></rect><g><g><g class="highcharts-legend-item highcharts-column-series highcharts-color-undefined highcharts-series-0" transform="translate(12,7)"><text x="21" style="color:#333333;font-size:1em;font-weight:normal;cursor:pointer;fill:#333333;" text-anchor="start" y="15"><tspan>BS: Heizöl (inkl. Flüssiggas)</tspan></text><rect x="2" y="4" width="12" height="12" fill="#FF8028" class="highcharts-point"></rect></g><g class="highcharts-legend-item highcharts-column-series highcharts-color-undefined highcharts-series-1" transform="translate(202.234375,7)"><text x="21" y="15" style="color:#333333;font-size:1em;font-weight:normal;cursor:pointer;fill:#333333;" text-anchor="start"><tspan>BS: Treibstoffe</tspan></text><rect x="2" y="4" width="12" height="12" fill="#DC440E" class="highcharts-point"></rect></g><g class="highcharts-legend-item highcharts-column-series highcharts-color-undefined highcharts-series-2" transform="translate(322.53125,7)"><text x="21" y="15" style="color:#333333;font-size:1em;font-weight:normal;cursor:pointer;fill:#333333;" text-anchor="start"><tspan>BS: Erdgas</tspan></text><rect x="2" y="4" width="12" height="12" fill="#B00000" class="highcharts-point"></rect></g><g class="highcharts-legend-item highcharts-column-series highcharts-color-undefined highcharts-series-3" transform="translate(12,26)"><text x="21" y="15" style="color:#333333;font-size:1em;font-weight:normal;cursor:pointer;fill:#333333;" text-anchor="start"><tspan>BS: Elektrizität</tspan></text><rect x="2" y="4" width="12" height="12" fill="#661200" class="highcharts-point"></rect></g><g class="highcharts-legend-item highcharts-column-series highcharts-color-undefined highcharts-series-4" transform="translate(130.9375,26)"><text x="21" y="15" style="color:#333333;font-size:1em;font-weight:normal;cursor:pointer;fill:#333333;" text-anchor="start"><tspan>BS: Kehricht, Industrieabfall</tspan></text><rect x="2" y="4" width="12" height="12" fill="#D3E2E4" class="highcharts-point"></rect></g><g class="highcharts-legend-item highcharts-column-series highcharts-color-undefined highcharts-series-5" transform="translate(12,45)"><text x="21" y="15" style="color:#333333;font-size:1em;font-weight:normal;cursor:pointer;fill:#333333;" text-anchor="start"><tspan>BS: Erneuerbare Energieträger</tspan></text><rect x="2" y="4" width="12" height="12" fill="#A8C3CA" class="highcharts-point"></rect></g></g></g></g><g class="highcharts-axis-labels highcharts-xaxis-labels "><text x="78.175" style="color:#000000;cursor:default;font-size:0.9em;fill:#000000;" text-anchor="middle" transform="translate(0,0)" y="363" opacity="1">1996</text><text x="121.07499999999999" style="color:#000000;cursor:default;font-size:0.9em;fill:#000000;" text-anchor="middle" transform="translate(0,0)" y="363" opacity="1">1998</text><text x="163.975" style="color:#000000;cursor:default;font-size:0.9em;fill:#000000;" text-anchor="middle" transform="translate(0,0)" y="363" opacity="1">2000</text><text x="206.875" style="color:#000000;cursor:default;font-size:0.9em;fill:#000000;" text-anchor="middle" transform="translate(0,0)" y="363" opacity="1">2002</text><text x="249.77499999999998" style="color:#000000;cursor:default;font-size:0.9em;fill:#000000;" text-anchor="middle" transform="translate(0,0)" y="363" opacity="1">2004</text><text x="292.67499999999995" style="color:#000000;cursor:default;font-size:0.9em;fill:#000000;" text-anchor="middle" transform="translate(0,0)" y="363" opacity="1">2006</text><text x="335.575" style="color:#000000;cursor:default;font-size:0.9em;fill:#000000;" text-anchor="middle" transform="translate(0,0)" y="363" opacity="1">2008</text><text x="378.475" style="color:#000000;cursor:default;font-size:0.9em;fill:#000000;" text-anchor="middle" transform="translate(0,0)" y="363" opacity="1">2010</text><text x="421.375" style="color:#000000;cursor:default;font-size:0.9em;fill:#000000;" text-anchor="middle" transform="translate(0,0)" y="363" opacity="1">2012</text><text x="462.78125" style="color:#000000;cursor:default;font-size:0.9em;fill:#000000;" text-anchor="middle" transform="translate(0,0)" y="363" opacity="1">2014</text></g><g class="highcharts-axis-labels highcharts-yaxis-labels "><text x="31" style="color:#000000;cursor:default;font-size:0.9em;fill:#000000;" text-anchor="end" transform="translate(0,0)" y="349" opacity="1"><tspan>0</tspan></text><text x="31" style="color:#000000;cursor:default;font-size:0.9em;fill:#000000;" text-anchor="end" transform="translate(0,0)" y="277" opacity="1"><tspan>2.5k</tspan></text><text x="31" style="color:#000000;cursor:default;font-size:0.9em;fill:#000000;" text-anchor="end" transform="translate(0,0)" y="205" opacity="1"><tspan>5k</tspan></text><text x="31" style="color:#000000;cursor:default;font-size:0.9em;fill:#000000;" text-anchor="end" transform="translate(0,0)" y="133" opacity="1"><tspan>7.5k</tspan></text></g><g class="highcharts-axis-labels highcharts-yaxis-labels "></g><text x="10" class="highcharts-credits" text-anchor="start" style="cursor:default;color:#000000;font-size:0.8em;fill:#000000;" y="400"><tspan>Quelle: Statistisches Amt Basel-Stadt; Statistisches Amt Basel-Landschaft</tspan></text></svg>

<svg class="highcharts-root" xmlns="http://www.w3.org/2000/svg" viewBox="0 0 485 415" font-family="Arial" font-size="12">
    <defs>
        <clipPath id="a">
            <path fill="none" d="M0 0h429v216H0z"/>
        </clipPath>
    </defs>
    <rect fill="#fbfbfb" class="highcharts-background" width="485" height="415" rx="0" ry="0"/>
    <path fill="none" class="highcharts-plot-background" d="M46 128h429v216H46z"/>
    <text transform="translate(10 451)" class="highcharts-label" cursor="pointer">
        <tspan>&gt; Indikator-Details</tspan>
    </text>
    <g class="highcharts-grid highcharts-xaxis-grid">
        <path fill="none" class="highcharts-grid-line" d="M77.5 128v216m0-216v216m43-216v216m0-216v216m43-216v216m0-216v216m43-216v216m0-216v216m43-216v216m0-216v216m43-216v216m0-216v216m43-216v216m0-216v216m42-216v216m0-216v216m43-216v216m0-216v216m43-216v216m0-216v216"/>
    </g>
    <g class="highcharts-grid highcharts-yaxis-grid">
        <path fill="none" stroke="#e6e6e6" class="highcharts-grid-line" d="M46 344.5h429m-429-72h429m-429-72h429m-429-73h429"/>
    </g>
    <path fill="none" class="highcharts-plot-border" d="M46 128h429v216H46z"/>
    <g class="highcharts-axis highcharts-xaxis">
        <path fill="none" class="highcharts-axis-line" stroke="#ccd6eb" d="M46 344.5h429"/>
    </g>
    <g class="highcharts-axis highcharts-yaxis">
        <path fill="none" class="highcharts-axis-line" d="M46 128v216"/>
    </g>
    <g class="highcharts-axis highcharts-yaxis">
        <path fill="none" class="highcharts-axis-line" d="M475 128v216"/>
    </g>
    <g class="highcharts-series-group">
        <g class="highcharts-series highcharts-series-0 highcharts-column-series highcharts-color-undefined highcharts-tracker" transform="translate(46 128)" clip-path="url(#a)">
            <path fill="#FF8028" class="highcharts-point" d="M6 30h11v48H6zm107 3h11v42h-11zm86 0h11v35h-11zm128 19h11v16h-11zm43 11h11v14h-11zm43 14h11v11h-11z"/>
        </g>
        <g class="highcharts-series highcharts-series-1 highcharts-column-series highcharts-color-undefined highcharts-tracker" transform="translate(46 128)" clip-path="url(#a)">
            <path fill="#DC440E" class="highcharts-point" d="M6 78h11v18H6zm107-3h11v21h-11zm86-7h11v21h-11zm128 0h11v22h-11zm43 9h11v21h-11zm43 11h11v21h-11z"/>
        </g>
        <g class="highcharts-series highcharts-series-2 highcharts-column-series highcharts-color-undefined highcharts-tracker" transform="translate(46 128)" clip-path="url(#a)">
            <path fill="#B00000" class="highcharts-point" d="M6 96h11v55H6zm107 0h11v53h-11zm86-7h11v59h-11zm128 1h11v56h-11zm43 8h11v50h-11zm43 11h11v41h-11z"/>
        </g>
        <g class="highcharts-series highcharts-series-3 highcharts-column-series highcharts-color-undefined highcharts-tracker" transform="translate(46 128)" clip-path="url(#a)">
            <path fill="#661200" class="highcharts-point" d="M6 151h11v41H6zm107-2h11v42h-11zm86-1h11v45h-11zm128-2h11v37h-11zm43 2h11v32h-11zm43 2h11v28h-11z"/>
        </g>
        <g class="highcharts-series highcharts-series-4 highcharts-column-series highcharts-color-undefined highcharts-tracker" transform="translate(46 128)" clip-path="url(#a)">
            <path fill="#D3E2E4" class="highcharts-point" d="M6 192h11v18H6zm107-1h11v19h-11zm86 2h11v16h-11zm128-10h11v23h-11zm43-3h11v24h-11zm43-2h11v24h-11z"/>
        </g>
        <g class="highcharts-series highcharts-series-5 highcharts-column-series highcharts-color-undefined highcharts-tracker" transform="translate(46 128)" clip-path="url(#a)">
            <path fill="#A8C3CA" class="highcharts-point" d="M6 210h11v7H6zm107 0h11v7h-11zm86-1h11v8h-11zm128-3h11v11h-11zm43-2h11v13h-11zm43-2h11v15h-11z"/>
        </g>
    </g>
    <text x="10" class="highcharts-title" y="20" color="#000" font-size="1.1em" font-weight="700">
        <tspan>Bruttoenergieverbrauch nach Energieträger</tspan>
    </text>
    <text x="10" class="highcharts-subtitle" y="38" color="#000" font-size=".9em">
        <tspan>Gigawattstunden</tspan>
    </text>
    <g class="highcharts-legend" transform="translate(10 40)">
        <rect fill="none" class="highcharts-legend-box" rx="0" ry="0" width="416" height="76"/>
        <g class="highcharts-legend-item highcharts-column-series highcharts-color-undefined highcharts-series-0">
            <text x="21" y="15" color="#333" font-size="1em" font-weight="400" cursor="pointer" fill="#333" transform="translate(12 7)">
                <tspan>BS: Heizöl (inkl. Flüssiggas)</tspan>
            </text>
            <path fill="#FF8028" class="highcharts-point" d="M14 11h12v12H14z"/>
        </g>
        <g class="highcharts-legend-item highcharts-column-series highcharts-color-undefined highcharts-series-1">
            <text x="21" y="15" color="#333" font-size="1em" font-weight="400" cursor="pointer" fill="#333" transform="translate(202.234 7)">
                <tspan>BS: Treibstoffe</tspan>
            </text>
            <path fill="#DC440E" class="highcharts-point" d="M204.234 11h12v12h-12z"/>
        </g>
        <g class="highcharts-legend-item highcharts-column-series highcharts-color-undefined highcharts-series-2">
            <text x="21" y="15" color="#333" font-size="1em" font-weight="400" cursor="pointer" fill="#333" transform="translate(322.531 7)">
                <tspan>BS: Erdgas</tspan>
            </text>
            <path fill="#B00000" class="highcharts-point" d="M324.531 11h12v12h-12z"/>
        </g>
        <g class="highcharts-legend-item highcharts-column-series highcharts-color-undefined highcharts-series-3">
            <text x="21" y="15" color="#333" font-size="1em" font-weight="400" cursor="pointer" fill="#333" transform="translate(12 26)">
                <tspan>BS: Elektrizität</tspan>
            </text>
            <path fill="#661200" class="highcharts-point" d="M14 30h12v12H14z"/>
        </g>
        <g class="highcharts-legend-item highcharts-column-series highcharts-color-undefined highcharts-series-4">
            <text x="21" y="15" color="#333" font-size="1em" font-weight="400" cursor="pointer" fill="#333" transform="translate(130.938 26)">
                <tspan>BS: Kehricht, Industrieabfall</tspan>
            </text>
            <path fill="#D3E2E4" class="highcharts-point" d="M132.938 30h12v12h-12z"/>
        </g>
        <g class="highcharts-legend-item highcharts-column-series highcharts-color-undefined highcharts-series-5">
            <text x="21" y="15" color="#333" font-size="1em" font-weight="400" cursor="pointer" fill="#333" transform="translate(12 45)">
                <tspan>BS: Erneuerbare Energieträger</tspan>
            </text>
            <path fill="#A8C3CA" class="highcharts-point" d="M14 49h12v12H14z"/>
        </g>
    </g>
    <g class="highcharts-axis-labels highcharts-xaxis-labels" text-anchor="middle" color="#000" cursor="default" font-size=".9em">
        <text x="78.175" y="366">
            1996
        </text>
        <text x="121.075" y="366">
            1998
        </text>
        <text x="163.975" y="366">
            2000
        </text>
        <text x="206.875" y="366">
            2002
        </text>
        <text x="249.775" y="366">
            2004
        </text>
        <text x="292.675" y="366">
            2006
        </text>
        <text x="335.575" y="366">
            2008
        </text>
        <text x="378.475" y="366">
            2010
        </text>
        <text x="421.375" y="366">
            2012
        </text>
        <text x="462.781" y="366">
            2014
        </text>
    </g>
    <g class="highcharts-axis-labels highcharts-yaxis-labels" text-anchor="end" color="#000" cursor="default" font-size=".9em">
        <text x="31" y="349">
            <tspan>0</tspan>
        </text>
        <text x="31" y="277">
            <tspan>2.5k</tspan>
        </text>
        <text x="31" y="205">
            <tspan>5k</tspan>
        </text>
        <text x="31" y="133">
            <tspan>7.5k</tspan>
        </text>
    </g>
    <text x="10" class="highcharts-credits" y="400" cursor="default" color="#000" font-size=".8em">
        <tspan>Quelle: Statistisches Amt Basel-Stadt; Statistisches Amt Basel-Landschaft</tspan>
    </text>
</svg>
